X:1063
T:The new German Waltz.
M:3/8
L:1/8
Q:3/8=60
I: :: ||
Z:Jack Campin * www.campin.me.uk * 2009
K:G
d/c/| BBA  | G3/ (g/f/e/)| dd^c  | d2  d/c/| BBA  | G2 Tg   |{a} gfe  | d2:|
d   |(ad).d|(bd).d       |(dc').b|(ba).g   |(gf).e|(df).g   |{b}(ag).f|Tg2:|
B/c/| dBd  | gfe         | edd   | dBd     | dcc  | cAc     |    cBB  | B2
B/c/| dBd  | gfe         | e2d/d/| dBd     | dcc  | c2  A/F/|    Ggg  | g2|]

